icons/absolute-elevation-16.svg

<svg id="icons" xmlns="http://www.w3.org/2000/svg" viewBox="0 0 16 16"><defs><style>.cls-1{fill:none;}.cls-2{fill-rule:evenodd;}</style></defs><rect class="cls-1" width="16" height="16"/><path class="cls-2" d="M8.5,5.8501A2.3501,2.3501,0,1,0,6.15039,3.5,2.35075,2.35075,0,0,0,8.5,5.8501ZM8.5,2A1.5,1.5,0,1,1,7,3.5,1.50172,1.50172,0,0,1,8.5,2ZM8,11H9v1H8Zm1-1H8V9H9ZM9,8H8V7H9Zm6.88867,6.81445A3.65347,3.65347,0,0,1,13.167,15.991a4.47978,4.47978,0,0,1-2.55371-.8064A3.00845,3.00845,0,0,1,8.5,15.991a2.972,2.972,0,0,1-2.09082-.7898,4.76352,4.76352,0,0,1-2.5752.7898,3.64194,3.64194,0,0,1-2.72265-1.17554.49366.49366,0,0,1-.1084-.36719.50009.50009,0,0,1,.88379-.26562A2.60084,2.60084,0,0,0,3.834,15a3.54965,3.54965,0,0,0,2.17188-.82129l.10254-.084.168-.07325.18652-.00683.18164.06543.11719.09082A2.0093,2.0093,0,0,0,8.5,15a1.97975,1.97975,0,0,0,1.72363-.81055l.11426-.09668L10.5,14.02148l.18457-.00781.18066.06445.12012.0918A3.47643,3.47643,0,0,0,13.167,15a2.59186,2.59186,0,0,0,1.94727-.81738.49974.49974,0,0,1,.77441.63183ZM2,12.877H1V0H2V1H3V2H2V3H3V4H2V5H3v.991H2V7.036H3V8H2V9H3v1H2v1H3v1H2Z"/></svg>

<svg xmlns="http://www.w3.org/2000/svg" viewBox="0 0 16 16"><path fill="none" d="M0 0h16v16H0z"/><path d="M8.5 5.85A2.35 2.35 0 1 0 6.15 3.5 2.35 2.35 0 0 0 8.5 5.85zM8.5 2A1.5 1.5 0 1 1 7 3.5 1.502 1.502 0 0 1 8.5 2zM8 11h1v1H8zm1-1H8V9h1zm0-2H8V7h1zm6.889 6.814a3.653 3.653 0 0 1-2.722 1.177 4.48 4.48 0 0 1-2.554-.806 3.008 3.008 0 0 1-2.113.806 2.972 2.972 0 0 1-2.09-.79 4.764 4.764 0 0 1-2.576.79 3.642 3.642 0 0 1-2.723-1.176.494.494 0 0 1-.108-.367.5.5 0 0 1 .884-.265A2.6 2.6 0 0 0 3.834 15a3.55 3.55 0 0 0 2.172-.821l.102-.084.168-.074.187-.006.182.065.117.09A2.01 2.01 0 0 0 8.5 15a1.98 1.98 0 0 0 1.724-.81l.114-.097.162-.072.185-.007.18.064.12.092a3.476 3.476 0 0 0 2.182.83 2.592 2.592 0 0 0 1.947-.817.5.5 0 0 1 .775.631zM2 12.877H1V0h1v1h1v1H2v1h1v1H2v1h1v.991H2v1.045h1V8H2v1h1v1H2v1h1v1H2z" fill-rule="evenodd"/></svg>
